material/.icons/material/video-account.svg

<svg xmlns="http://www.w3.org/2000/svg" viewBox="0 0 24 24"><path d="M17 10.5l4-4v11l-4-4V17a1 1 0 01-1 1H4a1 1 0 01-1-1V7a1 1 0 011-1h12a1 1 0 011 1v3.5M14 16v-1c0-1.33-2.67-2-4-2s-4 .67-4 2v1h8m-4-8a2 2 0 00-2 2 2 2 0 002 2 2 2 0 002-2 2 2 0 00-2-2z"/></svg>

<?xml version="1.0" encoding="UTF-8"?><!DOCTYPE svg PUBLIC "-//W3C//DTD SVG 1.1//EN" "http://www.w3.org/Graphics/SVG/1.1/DTD/svg11.dtd"><svg xmlns="http://www.w3.org/2000/svg" xmlns:xlink="http://www.w3.org/1999/xlink" version="1.1" id="mdi-video-account" width="24" height="24" viewBox="0 0 24 24"><path d="M17,10.5L21,6.5V17.5L17,13.5V17A1,1 0 0,1 16,18H4A1,1 0 0,1 3,17V7A1,1 0 0,1 4,6H16A1,1 0 0,1 17,7V10.5M14,16V15C14,13.67 11.33,13 10,13C8.67,13 6,13.67 6,15V16H14M10,8A2,2 0 0,0 8,10A2,2 0 0,0 10,12A2,2 0 0,0 12,10A2,2 0 0,0 10,8Z" /></svg>
